resources/svg/phone-o.svg

<svg xmlns="http://www.w3.org/2000/svg" viewBox="0 0 15 15" fill="none"><path d="M4.71922 0.5H2.5C1.39543 0.5 0.5 1.39543 0.5 2.5V4.5C0.5 10.0228 4.97715 14.5 10.5 14.5H12.5C13.6046 14.5 14.5 13.6046 14.5 12.5V11.118C14.5 10.7393 14.286 10.393 13.9472 10.2236L11.5313 9.01564C10.987 8.74349 10.3278 9.01652 10.1354 9.59384L9.83762 10.4871C9.64474 11.0658 9.05118 11.4102 8.45309 11.2906C6.05929 10.8119 4.18814 8.94071 3.70938 6.54691C3.58976 5.94882 3.93422 5.35526 4.51286 5.16238L5.62149 4.79284C6.11721 4.6276 6.40214 4.10855 6.2754 3.60162L5.68937 1.25746C5.57807 0.812297 5.17809 0.5 4.71922 0.5Z" stroke="black"/></svg>

<svg xmlns="http://www.w3.org/2000/svg" viewBox="0 0 15 15" fill="none"><path d="M4.72.5H2.5a2 2 0 00-2 2v2c0 5.523 4.477 10 10 10h2a2 2 0 002-2v-1.382a1 1 0 00-.553-.894l-2.416-1.208a1 1 0 00-1.396.578l-.297.893a1.21 1.21 0 01-1.385.804A6.047 6.047 0 013.71 6.547a1.21 1.21 0 01.804-1.385l1.108-.37a1 1 0 00.654-1.19L5.69 1.257A1 1 0 004.72.5z" stroke="currentColor"/></svg>
